icons/24x24_checkmark_badged_outline.svg

<svg xmlns="http://www.w3.org/2000/svg" width="24" height="24" viewBox="0 0 24 24">
  <path fill-rule="evenodd" d="M12,2 C17.5229861,2 22,6.47701386 22,12 C22,17.5229861 17.5229861,22 12,22 C6.47701386,22 2,17.5229861 2,12 C2,6.47701386 6.47701386,2 12,2 Z M12,4 C7.58158644,4 4,7.58158644 4,12 C4,16.4184136 7.58158644,20 12,20 C16.4184136,20 20,16.4184136 20,12 C20,7.58158644 16.4184136,4 12,4 Z M10.85725,15.7765003 L7.29325,12.2125003 C6.90225,11.8215003 6.90225,11.1895003 7.29325,10.7985003 C7.68425,10.4075003 8.31625,10.4075003 8.70725,10.7985003 L10.85725,12.9485003 L15.29325,8.51250027 C15.68425,8.12250027 16.31625,8.12250027 16.70725,8.51250027 C17.09825,8.90350027 17.09825,9.53650027 16.70725,9.92650027 L10.85725,15.7765003 Z"/>
</svg>

<svg width="24" height="24" fill="none" xmlns="http://www.w3.org/2000/svg"><path fill-rule="evenodd" clip-rule="evenodd" d="M12 2c5.523 0 10 4.477 10 10s-4.477 10-10 10S2 17.523 2 12 6.477 2 12 2Zm0 2a8 8 0 1 0 0 16 8 8 0 0 0 0-16Zm-1.143 11.777-3.564-3.564a.999.999 0 1 1 1.414-1.414l2.15 2.15 4.436-4.437a1 1 0 0 1 1.414 1.415l-5.85 5.85Z" fill="#000"/></svg>
